X:6
T:Sirdes
M:4/4
A:Armeni\"e
P:ABCBC
K:Dm
P:A
"Dm"za2a "Gm"ga b2| "C"zg2g "F"gfa2|"Dm"zf ed "Gm"^cd e2-|ef gb "A"ag a2|\
"Dm"za2a "Gm"ga b2|"C"zg2g "F"gfa2|"Dm"zf ed "Gm"^cd ed| ^cd cB "A"AGA2|:\
P:B
"A"za2e fde2|"Gm"z^c2d "A"cB A2|"Dm"zf2f f2f2|"Gm"ze2f "A"^g2a2::\
P:C
"F"za2a "C"gab2|"A"ze2f g2g2| zA2B ^cded| "Gm"^cdcB "A"A2A2:|
